X:1141
T:Yankee Doodle
C:Traditional American
M:2/2
L:1/4
R:Reel
%%MIDI ratio 3 1
S:Colin Hume's website,  colinhume.com  - chords can also be printed below the stave.
Q:1/2=112
B:T.Westrop's 120 Country Dances, 1860's
K:D
"D"dd ef | "D"dd "A7"cA | "D"dd ef | "D"d2 "A7"c2 |\
"D"dd "D7"ef | "G"gf "Em"ed | "A7"cA Bc | "D"d2d2 |
"G"B>c BA | "/"Bc d2 | "D"A>B AG | "D"F2 "D7"A2 |\
"G"B>c BA | "/"BcdB | "D"Ad "A7"ce | "D"d2 d2 |]

